X:352
T:Je veit ei lita jente
T:(Eg Veit Ei Lita Jente)
C:anon.
O:Norway
R:Reinlender
Z:Transcribed by Frank Nordberg - http://www.musicaviva.com
F:http://abc.musicaviva.com/tunes/norway/je-veit-ei-lita-jente/je-veit-ei-lita-jente-1.abc
M:C
L:1/8
Q:240
K:C
z/G,/|"C"C>C CE|"C"G>G GG|"F"A>F cA|"C"G2z>G|
"F"A>F FA|"F"c>c BA|"F"A4|"C"G2z>G|
"Dm"F>F AF|"G"D>D DF|"C"E>E "C/B"GE|"Am"C>C CE|
"Dm"E>D DE|"G"F>D B,D|"G7"D4|"C"C2z|]
W:
W:
W:  From Musica Viva - http://www.musicaviva.com
W:  the Internet center for free sheet music downloads.
